X: 73
T:La Musgana
M:6/8
L:1/8
R:Jig
Z:Steve Mansfield
K:C
G |: cBc def | ecc cgg | gde fgf | edc dcB | cBc def | ecc cgg |
gde fed |1 c3 c2G :|2 c3GAB |: c2G d2G | e2g gfe | d2e fed |
e2c GAB | c2G d2G | e2g gfe | d2e fed |1c3 GAB :|2 c3 c2 ||

